proprietary/assets/icons/energie-en-chemie/accu.svg

<svg enable-background="new 0 0 64 64" height="64" viewBox="0 0 64 64" width="64" xmlns="http://www.w3.org/2000/svg"><path d="m0 0h64v64h-64z" fill="none"/><path d="m56 18h-7v-1c0-2.5-2-3-4.5-3s-4.5.5-4.5 3v1h-16v-1c0-2.5-2-3-4.5-3s-4.5.5-4.5 3v1h-7c-1.7 0-2 1.3-2 3s.3 3 2 3h6.4c0 .1.1.3-.2.4l-6.2 1.2v23.4c0 1.1.9 2 2 2h44c1.1 0 2-.9 2-2v-25c1.7 0 2-1.3 2-3s-.3-3-2-3zm-31 19h-11v-3h11zm25 0h-4v4h-3v-4h-4v-3h4v-4h3v4h4z"/></svg>

<?xml version="1.0" encoding="utf-8"?>
<!-- Generator: Adobe Illustrator 21.0.2, SVG Export Plug-In . SVG Version: 6.00 Build 0)  -->
<!DOCTYPE svg PUBLIC "-//W3C//DTD SVG 1.1//EN" "http://www.w3.org/Graphics/SVG/1.1/DTD/svg11.dtd">
<svg version="1.1" xmlns="http://www.w3.org/2000/svg" xmlns:xlink="http://www.w3.org/1999/xlink" x="0px" y="0px" width="64px"
	 height="64px" viewBox="0 0 64 64" style="enable-background:new 0 0 64 64;" xml:space="preserve">
<style type="text/css">
	.st0{fill:none;}
	.st1{fill:#FFFFFF;}
</style>
<g id="_x36_4px_Box">
	<rect class="st0" width="64" height="64"/>
</g>
<g id="Icon">
	<g>
		<path d="M56,18h-7v-1c0-2.5-2-3-4.5-3S40,14.5,40,17v1H24v-1c0-2.5-2-3-4.5-3S15,14.5,15,17v1H8c-1.7,0-2,1.3-2,3s0.3,3,2,3h6.4
			c0,0.1,0.1,0.3-0.2,0.4L8,25.6V49c0,1.1,0.9,2,2,2h44c1.1,0,2-0.9,2-2V24c1.7,0,2-1.3,2-3S57.7,18,56,18z M25,37H14v-3h11V37z
			 M50,37h-4v4h-3v-4h-4v-3h4v-4h3v4h4V37z"/>
	</g>
</g>
</svg>
